X:590
%%etbk:tnset id:326,pos:1,rep:3x,ant:
%%etbk:pldat 2014-09-04T18:45,2014-09-03T19:00,2014-09-02T18:48,2014-09-01T18:50,2014-08-31T14:11,2014-08-28T18:46,2014-08-27T17:58,2014-08-26T17:04,2014-08-25T19:18,2014-08-05T18:46,2014-08-03T15:12,2014-08-02T16:33,2014-07-31T18:07,2014-07-26T15:08,2014-07-25T18:46,2014-07-24T19:02
T: Bright Blue Rose (A)
Z: Piano Box Version by Martin Fleischmann
H: Created 2014-07-02 /  Modified 2014-07-24
M: 4/4
L: 1/8
R: song
K:Amaj
"A"c2 c>c cB AG |  "D"A2 A>A AG FE | "A"E2 A>B cc/c/ dc | "E"cB -B2 z2 zz/ E|
"A"c2 c2 -c>B AG | "D"A2 A2 A2 zF/F/ | "A"E2 c4 G>A | -A6 zE |
"A"c2 c>c cB AG |  "D"A2 A>A AG FE | "A"E2 -AB c2 dc | "E"cB BA G2 zz/ E|
"A"c/e/-e-ec/B/ cB AG | "D"A<A AA AG FE | "A"E/A/-A A B/c/-c2 dc | "E"B2 AG "A"A2 z2 ||
|:"bm"zz/c/ dc "E"B>G AB | "A"c3-F E2 z2 | "bm"zz/c/ dc "E"B>G A<B | "A"c2 z2 z4 |
"bm"zz/c/ d<c "E"B>G AB | "A"c3-F E2 z2 | "G"zz/B/ B>B "D"A<A F<D | "E"E2 z2 z2 z2|
"A"c2 c>c cB AG |  "D"A2 A>A AG F2 | "A"E2 -AB d>c BA | "E"  B4 zz/ E|
"A"c/e/-e-ec/B/ cB AG | "D"A<A AA AG F2 | "A"E/A/-A A B/c/-c2 dc | "E"B2 AG "A"A2 z2 :||
"A"c/e/-e-ec/B/ cB AG | "D"A<A AA AG F2 | "A"E/A/-A A B/c/-c2 dc | "E"B2 AG "A"A2 z2 |


